build/category/GameSolid.svg

<svg xmlns="http://www.w3.org/2000/svg" fill="none" viewBox="0 0 24 24" focusable="false"><path d="M0 0H24V24H0z"/><path fill="#74767B" fill-rule="evenodd" d="M7.56522 5.32367C4.5035 5.32367 2.02148 7.80569 2.02148 10.8674L2.02148 16.9453C2.02148 18.4873 3.27155 19.7374 4.81359 19.7374C5.82759 19.7374 6.76189 19.1876 7.25433 18.3012L8.17678 17.0746C9.08049 15.8729 10.4966 15.166 12.0002 15.166C13.5038 15.166 14.9199 15.8729 15.8236 17.0746L16.7461 18.3012C17.2385 19.1876 18.1728 19.7374 19.1868 19.7374C20.7289 19.7374 21.9789 18.4873 21.9789 16.9453L21.9789 10.8674C21.9789 7.80569 19.4969 5.32367 16.4352 5.32367L7.56522 5.32367ZM7.02737 7.69775C6.66839 7.69775 6.37737 7.98877 6.37737 8.34775L6.37737 9.82031L4.90477 9.82031C4.54578 9.82031 4.25477 10.1113 4.25477 10.4703C4.25477 10.8293 4.54578 11.1203 4.90477 11.1203L6.37737 11.1203L6.37737 12.5928C6.37737 12.9518 6.66839 13.2428 7.02737 13.2428C7.38636 13.2428 7.67737 12.9518 7.67737 12.5928L7.67737 11.1203L9.14985 11.1203C9.50884 11.1203 9.79985 10.8293 9.79985 10.4703C9.79985 10.1113 9.50884 9.82031 9.14985 9.82031L7.67737 9.82031L7.67737 8.34775C7.67737 7.98877 7.38636 7.69775 7.02737 7.69775ZM16.9896 13.2481C18.5205 13.2481 19.7615 12.0071 19.7615 10.4762C19.7615 8.94539 18.5205 7.70438 16.9896 7.70438C15.4587 7.70438 14.2177 8.94539 14.2177 10.4762C14.2177 12.0071 15.4587 13.2481 16.9896 13.2481ZM16.9896 11.9481C17.8025 11.9481 18.4615 11.2891 18.4615 10.4762C18.4615 9.66336 17.8025 9.00438 16.9896 9.00438C16.1767 9.00438 15.5177 9.66336 15.5177 10.4762C15.5177 11.2891 16.1767 11.9481 16.9896 11.9481Z"/></svg>

<svg xmlns="http://www.w3.org/2000/svg" fill="none" viewBox="0 0 24 24" focusable="false"><path fill="#74767B" fill-rule="evenodd" d="M7.56 5.32a5.54 5.54 0 0 0-5.54 5.54v6.08a2.791 2.791 0 0 0 5.23 1.36l.92-1.23c.91-1.2 2.32-1.91 3.83-1.91 1.5 0 2.91.71 3.82 1.91l.92 1.23a2.791 2.791 0 0 0 5.23-1.36v-6.08a5.54 5.54 0 0 0-5.54-5.54zm-.54 2.37c-.36 0-.65.29-.65.65v1.48H4.9c-.36 0-.65.29-.65.65 0 .35.29.65.65.65h1.47v1.47c0 .36.29.65.65.65s.65-.29.65-.65v-1.47h1.47c.36 0 .65-.3.65-.65 0-.36-.29-.65-.65-.65H7.67V8.34c0-.36-.29-.65-.65-.65m9.96 5.55c1.54 0 2.78-1.24 2.78-2.77S18.52 7.7 16.98 7.7a2.77 2.77 0 1 0 0 5.54m0-1.3c.82 0 1.48-.66 1.48-1.47a1.475 1.475 0 0 0-2.95 0c0 .81.66 1.47 1.47 1.47"/></svg>
